X: 64
T: 64. Freu dich sehr, o meine Seele
N: Derived from chor064.krn
C: Johann Sebastian Bach
%%abc-version 2.0
%%abcx-abcm2ps-target-version 5.9.1 (29 Sep 2008)
%%abc-creator hum2abc beta
%%abcx-conversion-date 2019/03/11 17:28:18
%%abc-edited-by Craig Stuart Sapp
%%humdrum-veritas 3510113137
%%humdrum-veritas-data 2226305897
%%
%%barnumbers 0
L: 1/4
M: C
%%staves [1 2 3 4]
V: 1 clef=treble
V: 2 clef=treble
V: 3 clef=treble-8
V: 4 clef=bass
K: G
[V:1] GABA | 
[V:2] DDD3/^C/ | 
[V:3] BFG/F/E | 
[V:4] G,D,G,,A,, | 
[V:1] GFE!fermata!D | 
[V:2] B,A,/D/ D/^C/!fermata!D | 
[V:3] D/E/ F3//G// A/E/!fermata!F | 
[V:4] B,,/^C,/D,A,,!fermata!D,, | 
[V:1] GAB=c | 
[V:2] B,DDD | 
[V:3] GFGA | 
[V:4] E,D,/=C,/ B,,/A,,/ G,,/F,,/ | 
[V:1] BA!fermata!G2 :|]  
[V:2] DD!fermata!D2 :|]  
[V:3] A/G/ G/F/!fermata!B2 :|]  
[V:4] G,,D,,!fermata!G,,2 :|]  
[V:1] Bcdc | 
[V:2] GGFE/F/ | 
[V:3] deA/B/c | 
[V:4] G,/F,/E,D,A,, | 
[V:1] BA!fermata!B2 | 
[V:2] GF!fermata!G2 | 
[V:3] dd!fermata!d2 | 
[V:4] B,,/C,/D,!fermata!G,,2 | 
[V:1] dded | 
[V:2] GGGF | 
[V:3] B/c/d/B/cB | 
[V:4] G,,/A,,/B,,/G,,/ C,/B,,/C,/D,/ | 
[V:1] cB!fermata!A2 | 
[V:2] ED!fermata!D2 | 
[V:3] GG!fermata!F2 | 
[V:4] E,/F,/G,!fermata!D,2 | 
[V:1] B/c/dcB | 
[V:2] DG/=F/ED | 
[V:3] G/A/B-B/AG/- | 
[V:4] G,G,,A,,B,, | 
[V:1] GAB2 | 
[V:2] E/^D/E-E/D//^C//D | 
[V:3] G/F/ E/F/ G/F//E//F | 
[V:4] C,C,B,,2 | 
[V:1] !fermata!G2Bd | 
[V:2] !fermata!B,2E=F | 
[V:3] !fermata!E2GG | 
[V:4] !fermata!E,2E,/=D,/ =C,/B,,/ | 
[V:1] cBAB | 
[V:2] EB,/C/DD | 
[V:3] GGFG- | 
[V:4] C,/D,/ E,/D,/ C,/B,,/ A,,/G,,/ | 
[V:1] A2!fermata!G2 |]  
[V:2] D2!fermata!D2 |]  
[V:3] G/F//E//F!fermata!B2 |]  
[V:4] D,D,,!fermata!G,,2 |]  



